icons/bolt.svg

<svg width="24" height="24" viewBox="0 0 24 24" fill="none" xmlns="http://www.w3.org/2000/svg">
<path fill-rule="evenodd" clip-rule="evenodd" d="M11.7023 1.02951C12.1483 1.14016 12.4615 1.54055 12.4615 2.0001V8.77787H19C19.3625 8.77787 19.6966 8.97401 19.8732 9.29051C20.0499 9.60702 20.0414 9.99433 19.8511 10.3028L12.3127 22.5251C12.0779 22.9057 11.619 23.0842 11.1887 22.9622C10.7585 22.8401 10.4615 22.4473 10.4615 22.0001V15.2223H5C4.64939 15.2223 4.32438 15.0387 4.14344 14.7384C3.96251 14.4381 3.95207 14.0649 4.11594 13.7549L10.5775 1.53272C10.7923 1.12645 11.2563 0.918868 11.7023 1.02951ZM6.65982 13.2223H11.4615C12.0138 13.2223 12.4615 13.67 12.4615 14.2223V18.4739L17.2083 10.7779H11.4615C10.9093 10.7779 10.4615 10.3302 10.4615 9.77787V6.03123L6.65982 13.2223Z" fill="black"/>
</svg>

<svg
  width="24"
  height="24"
  viewBox="0 0 24 24"
  xmlns="http://www.w3.org/2000/svg"
>
  <path
    fill-rule="evenodd"
    clip-rule="evenodd"
    d="M11.702 1.03a1 1 0 0 1 .76.97v6.778H19a1 1 0 0 1 .851 1.525l-7.538 12.222A1 1 0 0 1 10.46 22v-6.778H5a1 1 0 0 1-.884-1.467l6.462-12.222a1 1 0 0 1 1.124-.503zM6.66 13.222h4.801a1 1 0 0 1 1 1v4.252l4.747-7.696h-5.746a1 1 0 0 1-1-1V6.03L6.66 13.222z"
  />
</svg>
